StripePaymentSheet/StripePaymentSheet/Resources/StripePaymentSheet.xcassets/Carousel/carousel_card_mastercard.imageset/mastercardDark.svg

<svg fill="none" height="40" viewBox="0 0 56 40" width="56" xmlns="http://www.w3.org/2000/svg" xmlns:xlink="http://www.w3.org/1999/xlink"><clipPath id="a"><path d="m8 8h40v24.7214h-40z"/></clipPath><g clip-path="url(#a)"><path d="m46.8192 28.0201v-.3983h.1604v-.0805h-.4084v.0805h.1604v.3983zm.7933 0v-.4801h-.1268l-.144.3304-.1446-.3304h-.1268v.4801h.0881v-.3609l.1351.3121h.092l.1351-.3127v.3628zm-20.7077 2.3877c.0964.0843.1985.1655.2987.2473-2.0262 1.3507-4.4077 2.0698-6.8428 2.0661-6.8269 0-12.3607-5.5344-12.3607-12.3607 0-6.8262 5.5338-12.3607 12.3607-12.3607 2.4351-.00361 4.8164.71521 6.8428 2.0655-.1002.0825-.2017.163-.2987.2473-1.4385 1.2492-2.5919 2.7927-3.3824 4.5261-.7904 1.7334-1.1995 3.6164-1.1995 5.5215s.4091 3.7881 1.1995 5.5215c.7905 1.7334 1.9439 3.2769 3.3824 4.5261zm8.7345-22.408c-2.4352-.00365-4.8166.71541-6.8428 2.0661.1002.0819.2017.163.2987.2474 1.4383 1.2492 2.5917 2.7926 3.3821 4.526.7904 1.7333 1.1994 3.6162 1.1994 5.5212 0 1.9051-.409 3.7879-1.1994 5.5213-.7904 1.7333-1.9438 3.2768-3.3821 4.526-.097.0843-.1991.1655-.2993.2479 2.0262 1.3505 4.4077 2.0694 6.8427 2.0655 6.8263 0 12.3608-5.5338 12.3608-12.3607s-5.5339-12.3607-12.3601-12.3607zm-7.6393 2.6477c-.159.1268-.315.2558-.468.3868-1.3356 1.1595-2.4066 2.5923-3.1405 4.2015-.734 1.6091-1.1138 3.3572-1.1137 5.1258.0001 1.7687.38 3.5167 1.114 5.1258.7341 1.6091 1.8052 3.0418 3.1408 4.2012.1526.1323.3086.2613.468.3869.159-.1269.315-.2558.4681-.3869 1.3352-1.1594 2.406-2.592 3.1398-4.201s1.1136-3.3568 1.1136-5.1252-.3798-3.5162-1.1136-5.1251c-.7338-1.609-1.8046-3.0416-3.1398-4.2011-.1531-.1327-.3091-.2617-.4681-.3868" fill="#fff"/></g></svg>

<svg width="56" height="40" viewBox="0 0 56 40" fill="none" xmlns="http://www.w3.org/2000/svg">
<g clip-path="url(#clip0_34_395)">
<path d="M46.8192 28.0201V27.6218H46.9796V27.5413H46.5712V27.6218H46.7316V28.0201H46.8192ZM47.6125 28.0201V27.54H47.4857L47.3417 27.8704L47.1971 27.54H47.0703V28.0201H47.1584V27.6592L47.2935 27.9713H47.3855L47.5206 27.6586V28.0214L47.6125 28.0201ZM26.9048 30.4078C27.0012 30.4921 27.1033 30.5733 27.2035 30.6551C25.1773 32.0058 22.7958 32.7249 20.3607 32.7212C13.5338 32.7212 8 27.1868 8 20.3605C8 13.5343 13.5338 7.9998 20.3607 7.9998C22.7958 7.99619 25.1771 8.71501 27.2035 10.0653C27.1033 10.1478 27.0018 10.2283 26.9048 10.3126C25.4663 11.5618 24.3129 13.1053 23.5224 14.8387C22.732 16.5721 22.3229 18.4551 22.3229 20.3602C22.3229 22.2653 22.732 24.1483 23.5224 25.8817C24.3129 27.6151 25.4663 29.1586 26.9048 30.4078ZM35.6393 7.9998C33.2041 7.99615 30.8227 8.71521 28.7965 10.0659C28.8967 10.1478 28.9982 10.2289 29.0952 10.3133C30.5335 11.5625 31.6869 13.1059 32.4773 14.8393C33.2677 16.5726 33.6767 18.4555 33.6767 20.3605C33.6767 22.2656 33.2677 24.1484 32.4773 25.8818C31.6869 27.6151 30.5335 29.1586 29.0952 30.4078C28.9982 30.4921 28.8961 30.5733 28.7959 30.6557C30.8221 32.0062 33.2036 32.7251 35.6386 32.7212C42.4649 32.7212 47.9994 27.1874 47.9994 20.3605C47.9994 13.5336 42.4655 7.9998 35.6393 7.9998ZM28 10.6475C27.841 10.7743 27.685 10.9033 27.532 11.0343C26.1964 12.1938 25.1254 13.6266 24.3915 15.2358C23.6575 16.8449 23.2777 18.593 23.2778 20.3616C23.2779 22.1303 23.6578 23.8783 24.3918 25.4874C25.1259 27.0965 26.197 28.5292 27.5326 29.6886C27.6852 29.8209 27.8412 29.9499 28.0006 30.0755C28.1596 29.9486 28.3156 29.8197 28.4687 29.6886C29.8039 28.5292 30.8747 27.0966 31.6085 25.4876C32.3423 23.8786 32.7221 22.1308 32.7221 20.3624C32.7221 18.594 32.3423 16.8462 31.6085 15.2373C30.8747 13.6283 29.8039 12.1957 28.4687 11.0362C28.3156 10.9035 28.1596 10.7745 28.0006 10.6494" fill="white"/>
</g>
<defs>
<clipPath id="clip0_34_395">
<rect width="40" height="24.7214" fill="white" transform="translate(8 8)"/>
</clipPath>
</defs>
</svg>
